build/assets/img/svg-sprite.svg

<svg xmlns="http://www.w3.org/2000/svg" xmlns:xlink="http://www.w3.org/1999/xlink"><defs>
<clipPath id="clip0">
<rect width="20" height="20" fill="white"/>
</clipPath>
</defs><symbol id="icon-arr-big" viewBox="0 0 13 22">
<path d="M2 2.14258L11.1659 11.0235L2.28493 20.1894" stroke="white" stroke-width="2" stroke-linecap="round" stroke-linejoin="round"/>
</symbol><symbol id="icon-arr_long" viewBox="0 0 11 11">
<path fill-rule="evenodd" clip-rule="evenodd" d="M0.313532 5.6026C0.312711 5.42808 0.381249 5.26039 0.504069 5.13641C0.626888 5.01243 0.793928 4.94232 0.968443 4.94149L8.59211 4.90563L5.75334 2.09476C5.69187 2.03387 5.643 1.96147 5.60952 1.88169C5.57603 1.80191 5.55859 1.71632 5.55818 1.6298C5.55777 1.54328 5.57441 1.45752 5.60714 1.37743C5.63988 1.29734 5.68806 1.22449 5.74896 1.16302C5.80985 1.10155 5.88225 1.05268 5.96203 1.0192C6.0418 0.98571 6.1274 0.968267 6.21392 0.96786C6.30044 0.967453 6.38619 0.98409 6.46628 1.01682C6.54637 1.04956 6.61923 1.09775 6.68069 1.15864L10.6473 5.0881C10.7089 5.14894 10.7578 5.22132 10.7914 5.30111C10.8249 5.38089 10.8424 5.46651 10.8428 5.55306C10.8432 5.63961 10.8265 5.72539 10.7938 5.80549C10.761 5.88559 10.7127 5.95843 10.6517 6.01984L6.72222 9.98645C6.66133 10.0479 6.58893 10.0968 6.50915 10.1303C6.42938 10.1638 6.34378 10.1812 6.25726 10.1816C6.17074 10.182 6.08499 10.1654 6.0049 10.1326C5.92481 10.0999 5.85195 10.0517 5.79049 9.99083C5.66635 9.86786 5.59615 9.70061 5.59533 9.52587C5.59492 9.43935 5.61156 9.3536 5.64429 9.27351C5.67702 9.19342 5.72521 9.12056 5.7861 9.0591L8.5983 6.22164L0.974634 6.25751C0.80012 6.25833 0.632427 6.18979 0.508446 6.06697C0.384466 5.94415 0.314353 5.77711 0.313532 5.6026Z" fill="white"/>
</symbol><symbol id="icon-arr_short" viewBox="0 0 6 9">
<path d="M1 1L5 4.5L1 8" stroke="white" stroke-width="1.2" stroke-linecap="round" stroke-linejoin="round"/>
</symbol><symbol id="icon-burger" viewBox="0 0 34 17">
<rect width="34" height="3.4" rx="1.7" fill="#2B2525"/>
<rect y="6.80005" width="25.5" height="3.4" rx="1.7" fill="#2B2525"/>
<rect y="13.6001" width="15.3" height="3.4" rx="1.7" fill="#2B2525"/>
</symbol><symbol id="icon-insta" viewBox="0 0 23 23">
<path d="M16.7741 0H6.22588C2.79287 0 0 2.79287 0 6.22588V16.7743C0 20.2071 2.79287 23 6.22588 23H16.7743C20.2071 23 23 20.2071 23 16.7743V6.22588C23 2.79287 20.2071 0 16.7741 0V0ZM21.6516 16.7743C21.6516 19.4636 19.4636 21.6516 16.7741 21.6516H6.22588C3.53636 21.6516 1.34836 19.4636 1.34836 16.7743V6.22588C1.34836 3.53636 3.53636 1.34836 6.22588 1.34836H16.7743C19.4636 1.34836 21.6516 3.53636 21.6516 6.22588V16.7743Z" fill="white"/>
<path d="M11.5001 5.21094C8.03231 5.21094 5.21118 8.03206 5.21118 11.4998C5.21118 14.9676 8.03231 17.7887 11.5001 17.7887C14.9678 17.7887 17.7889 14.9676 17.7889 11.4998C17.7889 8.03206 14.9678 5.21094 11.5001 5.21094ZM11.5001 16.4403C8.77597 16.4403 6.55954 14.2241 6.55954 11.4998C6.55954 8.77573 8.77597 6.55929 11.5001 6.55929C14.2243 6.55929 16.4406 8.77573 16.4406 11.4998C16.4406 14.2241 14.2243 16.4403 11.5001 16.4403Z" fill="white"/>
<path d="M17.9391 2.97754C16.9143 2.97754 16.0808 3.81122 16.0808 4.83583C16.0808 5.8606 16.9143 6.69429 17.9391 6.69429C18.9639 6.69429 19.7976 5.8606 19.7976 4.83583C19.7976 3.81105 18.9639 2.97754 17.9391 2.97754ZM17.9391 5.34576C17.658 5.34576 17.4292 5.11694 17.4292 4.83583C17.4292 4.55454 17.658 4.32589 17.9391 4.32589C18.2204 4.32589 18.4492 4.55454 18.4492 4.83583C18.4492 5.11694 18.2204 5.34576 17.9391 5.34576Z" fill="white"/>
</symbol><symbol id="icon-phone" viewBox="0 0 25 25">
<path d="M18.75 10.1562H17.1875C17.1869 9.53484 16.9398 8.93906 16.5003 8.49965C16.0609 8.06025 15.4652 7.81312 14.8438 7.8125V6.25C15.8794 6.25124 16.8722 6.66319 17.6045 7.39548C18.3368 8.12778 18.7488 9.12063 18.75 10.1562Z" fill="#2C64E5"/>
<path d="M21.875 10.1562H20.3125C20.3108 8.70636 19.7341 7.31632 18.7089 6.29109C17.6837 5.26586 16.2936 4.68915 14.8438 4.6875V3.125C16.7079 3.12707 18.4951 3.86852 19.8133 5.18669C21.1315 6.50486 21.8729 8.29208 21.875 10.1562Z" fill="#2C64E5"/>
<path d="M15.8851 16.7828L17.6351 15.0328C17.8694 14.7985 18.1672 14.6381 18.4918 14.5714C18.8163 14.5048 19.1533 14.5348 19.4609 14.6578L21.5922 15.5109C21.9063 15.6366 22.1756 15.8536 22.3652 16.1337C22.5549 16.4139 22.6562 16.7445 22.6562 17.0828V20.9586C22.6568 21.189 22.6103 21.417 22.5197 21.6288C22.429 21.8406 22.2961 22.0316 22.1291 22.1902C21.962 22.3489 21.7644 22.4718 21.5482 22.5513C21.332 22.6309 21.1019 22.6656 20.8719 22.6531C5.9328 21.7234 2.91561 9.07032 2.35545 4.22501C2.32832 3.98813 2.35165 3.74819 2.4239 3.52097C2.49615 3.29376 2.61569 3.08441 2.77465 2.90671C2.93361 2.729 3.12839 2.58696 3.34618 2.48994C3.56397 2.39291 3.79984 2.34309 4.03827 2.34376H7.8453C8.18363 2.34375 8.51421 2.44511 8.79439 2.63477C9.07456 2.82443 9.29149 3.09369 9.41717 3.40782L10.2695 5.53907C10.3925 5.84671 10.4226 6.18367 10.3559 6.50821C10.2892 6.83275 10.1288 7.1306 9.89452 7.36485L8.14452 9.11485C8.14452 9.11485 9.11483 15.9367 15.8851 16.7828Z" fill="#2C64E5"/>
</symbol><symbol id="icon-staple" viewBox="0 0 20 20">
<g clip-path="url(#clip0)">
<path d="M4.85195 20.0004C3.5743 20.0005 2.36774 19.4942 1.43685 18.5633C0.462121 17.5886 -0.0470184 16.3114 0.00313776 14.9671C0.0549736 13.5787 0.682199 12.245 1.81704 11.1101L3.86032 9.05853C4.16477 8.75279 4.65942 8.75177 4.96516 9.05627C5.27086 9.36072 5.27191 9.85541 4.96742 10.1611L2.92305 12.2139C1.26638 13.8706 1.11005 16.0268 2.54176 17.4585C3.97352 18.8903 6.12973 18.7339 7.78519 17.0783L10.5933 14.2702C11.4444 13.4191 11.9138 12.4473 11.9506 11.4599C11.9844 10.5548 11.6374 9.69072 10.9735 9.02681C10.751 8.80439 10.5049 8.61564 10.2419 8.46584C9.86694 8.25228 9.73612 7.77521 9.94968 7.40033C10.1633 7.02541 10.6403 6.89463 11.0152 7.10814C11.3995 7.32705 11.7572 7.60088 12.0783 7.92201C13.0531 8.89674 13.5622 10.1739 13.5121 11.5182C13.4602 12.9066 12.833 14.2404 11.6982 15.3752L8.89007 18.1832C7.75519 19.3181 6.42152 19.9453 5.03313 19.9971C4.97266 19.9993 4.91215 20.0004 4.85195 20.0004ZM10.0499 12.6006C10.2635 12.2257 10.1326 11.7486 9.75772 11.5351C9.49472 11.3853 9.24855 11.1965 9.02612 10.9742C7.59441 9.5424 7.75074 7.38619 9.40628 5.73065L12.2144 2.92261C13.8699 1.2671 16.0261 1.11073 17.4578 2.54245C18.8895 3.97417 18.7332 6.13037 17.0765 7.78705L15.0321 9.83982C14.7276 10.1455 14.7287 10.6402 15.0344 10.9447C15.3401 11.2492 15.8347 11.2481 16.1392 10.9424L18.1825 8.89076C19.3174 7.75592 19.9445 6.42221 19.9964 5.03385C20.0466 3.68952 19.5374 2.41233 18.5627 1.43761C17.5879 0.462844 16.3101 -0.0462175 14.9665 0.00386056C13.5781 0.0556964 12.2444 0.682922 11.1096 1.81776L8.30144 4.62581C7.1666 5.76065 6.53941 7.09436 6.48754 8.48271C6.43738 9.82705 6.94652 11.1042 7.92124 12.079C8.24238 12.4001 8.60007 12.6739 8.98441 12.8928C9.10644 12.9623 9.23925 12.9954 9.37034 12.9954C9.64194 12.9953 9.90585 12.8534 10.0499 12.6006Z" fill="black"/>
</g>

</symbol><symbol id="icon-star" viewBox="0 0 16 16">
<path d="M14.1892 5.51739L10.222 4.94083L8.44859 1.34551C8.40015 1.24708 8.32046 1.16739 8.22203 1.11895C7.97515 0.997076 7.67515 1.09864 7.55171 1.34551L5.77828 4.94083L1.81109 5.51739C1.70171 5.53301 1.60171 5.58458 1.52515 5.6627C1.43259 5.75784 1.38159 5.88583 1.38334 6.01855C1.3851 6.15127 1.43948 6.27786 1.53453 6.37051L4.40484 9.16895L3.72671 13.1205C3.71081 13.2124 3.72098 13.307 3.75608 13.3934C3.79117 13.4798 3.84978 13.5547 3.92526 13.6095C4.00074 13.6644 4.09007 13.6969 4.18312 13.7036C4.27617 13.7102 4.36922 13.6906 4.45171 13.6471L8.00015 11.7815L11.5486 13.6471C11.6455 13.6986 11.758 13.7158 11.8658 13.6971C12.1377 13.6502 12.3205 13.3924 12.2736 13.1205L11.5955 9.16895L14.4658 6.37051C14.5439 6.29395 14.5955 6.19395 14.6111 6.08458C14.6533 5.81114 14.4627 5.55801 14.1892 5.51739Z" fill="#FEC353"/>
</symbol><symbol id="icon-tg" viewBox="0 0 24 28">
<path d="M23.9302 5.39232L20.3088 22.8267C20.0356 24.0572 19.3231 24.3634 18.3106 23.7837L12.7927 19.6329L10.1302 22.247C9.83557 22.5478 9.58914 22.7993 9.02129 22.7993L9.41772 17.0626L19.6445 7.62904C20.0891 7.22435 19.5481 7.00013 18.9534 7.40482L6.31057 15.5314L0.867715 13.7923C-0.316214 13.415 -0.337642 12.5837 1.11414 12.004L22.4034 3.63138C23.3891 3.25404 24.2516 3.8556 23.9302 5.39232Z" fill="white"/>
</symbol></svg>

<svg xmlns="http://www.w3.org/2000/svg"><defs><clipPath id="clip0"><path fill="#fff" d="M0 0h20v20H0z"/></clipPath></defs><symbol id="icon-arr-big" viewBox="0 0 13 22"><path d="M2 2.143l9.166 8.88-8.881 9.166"/></symbol><symbol id="icon-arr" viewBox="0 0 6 9"><path d="M1 1l4 3.5L1 8" stroke="#000" stroke-width="1.2" stroke-linecap="round" stroke-linejoin="round"/></symbol><symbol id="icon-arr_long" viewBox="0 0 11 11"><path fill-rule="evenodd" clip-rule="evenodd" d="M.314 5.603a.658.658 0 01.654-.662l7.624-.035-2.839-2.811a.659.659 0 11.928-.936l3.966 3.93a.658.658 0 01.005.93l-3.93 3.967a.66.66 0 01-.936-.927l2.812-2.837-7.623.036a.658.658 0 01-.661-.655z"/></symbol><symbol id="icon-arr_short" viewBox="0 0 6 9"><path d="M1 1l4 3.5L1 8" stroke="#fff" stroke-width="1.2" stroke-linecap="round" stroke-linejoin="round"/></symbol><symbol id="icon-burger" viewBox="0 0 34 17"><rect width="34" height="3.4" rx="1.7" fill="#2B2525"/><rect y="6.8" width="25.5" height="3.4" rx="1.7" fill="#2B2525"/><rect y="13.6" width="15.3" height="3.4" rx="1.7" fill="#2B2525"/></symbol><symbol id="icon-insta" viewBox="0 0 23 23"><path d="M16.774 0H6.226A6.233 6.233 0 000 6.226v10.548A6.233 6.233 0 006.226 23h10.548A6.233 6.233 0 0023 16.774V6.226A6.233 6.233 0 0016.774 0zm4.878 16.774a4.883 4.883 0 01-4.878 4.878H6.226a4.883 4.883 0 01-4.878-4.878V6.226a4.883 4.883 0 014.878-4.878h10.548a4.883 4.883 0 014.878 4.878v10.548z"/><path d="M11.5 5.21a6.296 6.296 0 00-6.289 6.29 6.296 6.296 0 006.29 6.289 6.296 6.296 0 006.288-6.29A6.296 6.296 0 0011.5 5.212zm0 11.23a4.946 4.946 0 01-4.94-4.94 4.946 4.946 0 014.94-4.94 4.946 4.946 0 014.94 4.94 4.946 4.946 0 01-4.94 4.94zm6.44-13.462a1.86 1.86 0 00-1.86 1.858 1.86 1.86 0 001.86 1.858 1.86 1.86 0 001.858-1.858 1.86 1.86 0 00-1.859-1.858zm0 2.368a.51.51 0 110-1.021.51.51 0 010 1.02z"/></symbol><symbol id="icon-phone" viewBox="0 0 25 25"><path d="M18.75 10.156h-1.563a2.346 2.346 0 00-2.343-2.344V6.25a3.91 3.91 0 013.906 3.906z" fill="#2C64E5"/><path d="M21.875 10.156h-1.563a5.475 5.475 0 00-5.468-5.469V3.125a7.04 7.04 0 017.031 7.031zm-5.99 6.627l1.75-1.75a1.693 1.693 0 011.826-.375l2.131.853a1.693 1.693 0 011.064 1.572v3.876a1.693 1.693 0 01-1.784 1.694C5.932 21.723 2.916 9.07 2.355 4.225a1.69 1.69 0 011.683-1.881h3.807a1.693 1.693 0 011.572 1.064l.853 2.131a1.693 1.693 0 01-.375 1.826l-1.75 1.75s.97 6.822 7.74 7.668z" fill="#2C64E5"/></symbol><symbol id="icon-staple" viewBox="0 0 20 20"><g clip-path="url(#clip0)"><path d="M4.852 20c-1.278 0-2.484-.506-3.415-1.437-.975-.974-1.484-2.252-1.434-3.596.052-1.388.68-2.722 1.814-3.857L3.86 9.06a.781.781 0 111.107 1.102l-2.044 2.053c-1.657 1.657-1.813 3.813-.381 5.245 1.432 1.431 3.588 1.275 5.243-.38l2.808-2.809c.851-.85 1.32-1.823 1.358-2.81.033-.905-.314-1.77-.978-2.433a3.459 3.459 0 00-.731-.561.781.781 0 11.773-1.358c.384.22.742.493 1.063.814.975.975 1.484 2.252 1.434 3.596-.052 1.389-.679 2.722-1.814 3.857L8.89 18.183c-1.135 1.135-2.468 1.762-3.857 1.814-.06.002-.12.003-.181.003zm5.198-7.4a.781.781 0 00-.292-1.065 3.46 3.46 0 01-.732-.56c-1.432-1.433-1.275-3.589.38-5.244l2.808-2.808c1.656-1.656 3.812-1.812 5.244-.38 1.432 1.431 1.275 3.587-.381 5.244L15.031 9.84a.781.781 0 001.107 1.102l2.044-2.051c1.134-1.135 1.762-2.469 1.813-3.857.05-1.344-.459-2.622-1.433-3.596C17.588.463 16.31-.046 14.967.004c-1.389.052-2.723.679-3.857 1.814L8.3 4.626C7.167 5.76 6.54 7.094 6.488 8.483c-.05 1.344.459 2.621 1.433 3.596a5.02 5.02 0 001.063.814.778.778 0 001.066-.292z"/></g></symbol><symbol id="icon-star" viewBox="0 0 16 16"><path d="M14.19 5.517l-3.968-.576-1.773-3.595a.502.502 0 00-.897 0L5.778 4.94l-3.967.576a.499.499 0 00-.276.854l2.87 2.798-.678 3.951a.5.5 0 00.725.527L8 11.781l3.549 1.866a.5.5 0 00.725-.527l-.678-3.951 2.87-2.798a.499.499 0 00-.277-.854z" fill="#FEC353"/></symbol><symbol id="icon-tg" viewBox="0 0 24 28"><path d="M23.93 5.392l-3.62 17.435c-.273 1.23-.986 1.536-1.998.957l-5.518-4.151-2.663 2.614c-.294.3-.54.552-1.109.552l.397-5.736 10.227-9.434c.444-.405-.097-.629-.692-.224L6.311 15.53.868 13.792c-1.184-.377-1.206-1.208.246-1.788l21.29-8.373c.985-.377 1.848.225 1.526 1.761z"/></symbol></svg>
